static/img/kroki/a11271838ec290bf841f9f50faf615ed.svg

<?xml version="1.0" encoding="us-ascii" standalone="no"?><svg xmlns="http://www.w3.org/2000/svg" xmlns:xlink="http://www.w3.org/1999/xlink" contentStyleType="text/css" height="252px" preserveAspectRatio="none" style="width:1320px;height:252px;" version="1.1" viewBox="0 0 1320 252" width="1320px" zoomAndPan="magnify"><defs/><g><!--class azure_cosmos_db_cassandra_cluster--><g id="elem_azure_cosmos_db_cassandra_cluster"><rect codeLine="23" fill="#3D176E" height="39.7891" id="azure_cosmos_db_cassandra_cluster" rx="2.5" ry="2.5" style="stroke:#000D19;stroke-width:0.5;" width="343" x="485" y="106.79"/><ellipse cx="500" cy="126.6845" fill="#ADD1B2" rx="11" ry="11" style="stroke:#181818;stroke-width:1.0;"/><path d="M502.9688,132.3252 Q502.3906,132.622 501.75,132.7627 Q501.1094,132.9189 500.4063,132.9189 Q497.9063,132.9189 496.5781,131.2783 Q495.2656,129.622 495.2656,126.497 Q495.2656,123.372 496.5781,121.7158 Q497.9063,120.0595 500.4063,120.0595 Q501.1094,120.0595 501.75,120.2158 Q502.4063,120.372 502.9688,120.6689 L502.9688,123.3877 Q502.3438,122.8095 501.75,122.5439 Q501.1563,122.2627 500.5313,122.2627 Q499.1875,122.2627 498.5,123.3408 Q497.8125,124.4033 497.8125,126.497 Q497.8125,128.5908 498.5,129.6689 Q499.1875,130.7314 500.5313,130.7314 Q501.1563,130.7314 501.75,130.4658 Q502.3438,130.1845 502.9688,129.6064 L502.9688,132.3252 Z " fill="#000000"/><text fill="#D9B8FF" font-family="Helvetica" font-size="17" lengthAdjust="spacing" textLength="301" x="519" y="132.5698">azure_cosmos_db_cassandra_cluster</text></g><!--class azure_cosmos_db_cassandra_cluster_data_center--><g id="elem_azure_cosmos_db_cassandra_cluster_data_center"><rect codeLine="26" fill="#3D176E" height="39.7891" id="azure_cosmos_db_cassandra_cluster_data_center" rx="2.5" ry="2.5" style="stroke:#000D19;stroke-width:0.5;" width="451" x="7" y="206.58"/><ellipse cx="22" cy="226.4745" fill="#ADD1B2" rx="11" ry="11" style="stroke:#181818;stroke-width:1.0;"/><path d="M24.9688,232.1152 Q24.3906,232.412 23.75,232.5527 Q23.1094,232.7089 22.4063,232.7089 Q19.9063,232.7089 18.5781,231.0683 Q17.2656,229.412 17.2656,226.287 Q17.2656,223.162 18.5781,221.5058 Q19.9063,219.8495 22.4063,219.8495 Q23.1094,219.8495 23.75,220.0058 Q24.4063,220.162 24.9688,220.4589 L24.9688,223.1777 Q24.3438,222.5995 23.75,222.3339 Q23.1563,222.0527 22.5313,222.0527 Q21.1875,222.0527 20.5,223.1308 Q19.8125,224.1933 19.8125,226.287 Q19.8125,228.3808 20.5,229.4589 Q21.1875,230.5214 22.5313,230.5214 Q23.1563,230.5214 23.75,230.2558 Q24.3438,229.9745 24.9688,229.3964 L24.9688,232.1152 Z " fill="#000000"/><text fill="#D9B8FF" font-family="Helvetica" font-size="17" lengthAdjust="spacing" textLength="409" x="41" y="232.3598">azure_cosmos_db_cassandra_cluster_data_center</text></g><!--class azure_cosmos_db_cassandra_cluster_public_status--><g id="elem_azure_cosmos_db_cassandra_cluster_public_status"><rect codeLine="29" fill="#3D176E" height="39.7891" id="azure_cosmos_db_cassandra_cluster_public_status" rx="2.5" ry="2.5" style="stroke:#000D19;stroke-width:0.5;" width="461" x="493" y="206.58"/><ellipse cx="508" cy="226.4745" fill="#ADD1B2" rx="11" ry="11" style="stroke:#181818;stroke-width:1.0;"/><path d="M510.9688,232.1152 Q510.3906,232.412 509.75,232.5527 Q509.1094,232.7089 508.4063,232.7089 Q505.9063,232.7089 504.5781,231.0683 Q503.2656,229.412 503.2656,226.287 Q503.2656,223.162 504.5781,221.5058 Q505.9063,219.8495 508.4063,219.8495 Q509.1094,219.8495 509.75,220.0058 Q510.4063,220.162 510.9688,220.4589 L510.9688,223.1777 Q510.3438,222.5995 509.75,222.3339 Q509.1563,222.0527 508.5313,222.0527 Q507.1875,222.0527 506.5,223.1308 Q505.8125,224.1933 505.8125,226.287 Q505.8125,228.3808 506.5,229.4589 Q507.1875,230.5214 508.5313,230.5214 Q509.1563,230.5214 509.75,230.2558 Q510.3438,229.9745 510.9688,229.3964 L510.9688,232.1152 Z " fill="#000000"/><text fill="#D9B8FF" font-family="Helvetica" font-size="17" lengthAdjust="spacing" textLength="419" x="527" y="232.3598">azure_cosmos_db_cassandra_cluster_public_status</text></g><!--class azure_network_subnet--><g id="elem_azure_network_subnet"><rect codeLine="32" fill="#3D176E" height="39.7891" id="azure_network_subnet" rx="2.5" ry="2.5" style="stroke:#000D19;stroke-width:0.5;" width="233" x="361" y="7"/><ellipse cx="376" cy="26.8945" fill="#ADD1B2" rx="11" ry="11" style="stroke:#181818;stroke-width:1.0;"/><path d="M378.9688,32.5352 Q378.3906,32.832 377.75,32.9727 Q377.1094,33.1289 376.4063,33.1289 Q373.9063,33.1289 372.5781,31.4883 Q371.2656,29.832 371.2656,26.707 Q371.2656,23.582 372.5781,21.9258 Q373.9063,20.2695 376.4063,20.2695 Q377.1094,20.2695 377.75,20.4258 Q378.4063,20.582 378.9688,20.8789 L378.9688,23.5977 Q378.3438,23.0195 377.75,22.7539 Q377.1563,22.4727 376.5313,22.4727 Q375.1875,22.4727 374.5,23.5508 Q373.8125,24.6133 373.8125,26.707 Q373.8125,28.8008 374.5,29.8789 Q375.1875,30.9414 376.5313,30.9414 Q377.1563,30.9414 377.75,30.6758 Q378.3438,30.3945 378.9688,29.8164 L378.9688,32.5352 Z " fill="#000000"/><text fill="#D9B8FF" font-family="Helvetica" font-size="17" lengthAdjust="spacing" textLength="191" x="395" y="32.7798">azure_network_subnet</text></g><!--class microsoft_graph_service_principal--><g id="elem_microsoft_graph_service_principal"><rect codeLine="35" fill="#3D176E" height="39.7891" id="microsoft_graph_service_principal" rx="2.5" ry="2.5" style="stroke:#000D19;stroke-width:0.5;" width="324" x="989.5" y="206.58"/><ellipse cx="1004.5" cy="226.4745" fill="#ADD1B2" rx="11" ry="11" style="stroke:#181818;stroke-width:1.0;"/><path d="M1007.4688,232.1152 Q1006.8906,232.412 1006.25,232.5527 Q1005.6094,232.7089 1004.9063,232.7089 Q1002.4063,232.7089 1001.0781,231.0683 Q999.7656,229.412 999.7656,226.287 Q999.7656,223.162 1001.0781,221.5058 Q1002.4063,219.8495 1004.9063,219.8495 Q1005.6094,219.8495 1006.25,220.0058 Q1006.9063,220.162 1007.4688,220.4589 L1007.4688,223.1777 Q1006.8438,222.5995 1006.25,222.3339 Q1005.6563,222.0527 1005.0313,222.0527 Q1003.6875,222.0527 1003,223.1308 Q1002.3125,224.1933 1002.3125,226.287 Q1002.3125,228.3808 1003,229.4589 Q1003.6875,230.5214 1005.0313,230.5214 Q1005.6563,230.5214 1006.25,230.2558 Q1006.8438,229.9745 1007.4688,229.3964 L1007.4688,232.1152 Z " fill="#000000"/><text fill="#D9B8FF" font-family="Helvetica" font-size="17" lengthAdjust="spacing" textLength="282" x="1023.5" y="232.3598">microsoft_graph_service_principal</text></g><!--link azure_cosmos_db_cassandra_cluster to azure_cosmos_db_cassandra_cluster_data_center--><g id="link_azure_cosmos_db_cassandra_cluster_azure_cosmos_db_cassandra_cluster_data_center"><path codeLine="38" d="M572.48,147.06 C498.24,164.19 396.3865,187.6815 322.2065,204.7915 " fill="none" id="azure_cosmos_db_cassandra_cluster-to-azure_cosmos_db_cassandra_cluster_data_center" style="stroke:#1A83AF;stroke-width:2.0;"/><polygon fill="#1A83AF" points="316.36,206.14,326.0288,208.0149,321.2321,205.0162,324.2307,200.2196,316.36,206.14" style="stroke:#1A83AF;stroke-width:2.0;"/></g><!--link azure_cosmos_db_cassandra_cluster to azure_cosmos_db_cassandra_cluster_public_status--><g id="link_azure_cosmos_db_cassandra_cluster_azure_cosmos_db_cassandra_cluster_public_status"><path codeLine="39" d="M669.74,147.01 C681.48,164.15 695.1594,184.1099 706.8994,201.2499 " fill="none" id="azure_cosmos_db_cassandra_cluster-to-azure_cosmos_db_cassandra_cluster_public_status" style="stroke:#1A83AF;stroke-width:2.0;"/><polygon fill="#1A83AF" points="710.29,206.2,708.5042,196.5144,707.4645,202.0749,701.904,201.0352,710.29,206.2" style="stroke:#1A83AF;stroke-width:2.0;"/></g><!--link azure_cosmos_db_cassandra_cluster to microsoft_graph_service_principal--><g id="link_azure_cosmos_db_cassandra_cluster_microsoft_graph_service_principal"><path codeLine="40" d="M754.59,147.06 C841.26,164.19 961.1038,187.8672 1047.7138,204.9772 " fill="none" id="azure_cosmos_db_cassandra_cluster-to-microsoft_graph_service_principal" style="stroke:#1A83AF;stroke-width:2.0;"/><polygon fill="#1A83AF" points="1053.6,206.14,1045.5459,200.4716,1048.6948,205.171,1043.9954,208.3199,1053.6,206.14" style="stroke:#1A83AF;stroke-width:2.0;"/></g><!--link azure_network_subnet to azure_cosmos_db_cassandra_cluster--><g id="link_azure_network_subnet_azure_cosmos_db_cassandra_cluster"><path codeLine="41" d="M512.86,47.22 C544.25,64.36 584.5851,86.3924 615.9451,103.5324 " fill="none" id="azure_network_subnet-to-azure_cosmos_db_cassandra_cluster" style="stroke:#1A83AF;stroke-width:2.0;"/><polygon fill="#1A83AF" points="621.21,106.41,615.231,98.5837,616.8226,104.012,611.3942,105.6036,621.21,106.41" style="stroke:#1A83AF;stroke-width:2.0;"/></g><!--link azure_network_subnet to azure_cosmos_db_cassandra_cluster_data_center--><g id="link_azure_network_subnet_azure_cosmos_db_cassandra_cluster_data_center"><path codeLine="42" d="M453.56,47.2 C406.72,84.97 308.1209,164.494 261.2009,202.324 " fill="none" id="azure_network_subnet-to-azure_cosmos_db_cassandra_cluster_data_center" style="stroke:#1A83AF;stroke-width:2.0;"/><polygon fill="#1A83AF" points="256.53,206.09,266.047,203.555,260.4224,202.9517,261.0257,197.3271,256.53,206.09" style="stroke:#1A83AF;stroke-width:2.0;"/></g><!--SRC=[hPBHQy8m4CRV-rS4V1RiP5DV1fqWsukCkRSnmZMvsj0sAPTKqR7_VUtSHctLhk1RSlVBTzzz95OI6MQvsx4Cin39UZPHEWU2Z0L4PZitgI4sY2A8nfDcSs6qwmIMa25xn7I3JWbe4g-n4eb6QzbDhVK08bcJARGyo3i2RSiMQbUZvYbO6pX7AYmSrip8MJYDeYRP51sCfJ-vmnPcI2Bz8AFHIFgp9j8vwkBUVyHAxP7vzT2Mnc7BPcl4DtNHPKNKJBOM_UsVzVWCKYgzPhUrsil14scae_eg1ccs5Hr1QkjZh4D2utOvpbjRuMmgeyb9-EaSx8agEWRxWf0BOpDZkGovA8kW9G4NQL79i0_F-_mlp2Muyb9-hRuFyo9CbU3MWIji-wb6jpMKS5k4vR7UpvGWOqta-9eWZxb5sYY1F2UbXSeXFS3TUmxV1dum7GUBz-5zlqslBtwKHb_vpaIyavdsitWDZQCClm00]--></g></svg>

<svg xmlns="http://www.w3.org/2000/svg" width="1320" height="252" viewBox="0 0 1320 252"><rect width="343" height="39.789" x="485" y="106.79" fill="#3D176E" rx="2.5" ry="2.5" style="stroke:#000d19;stroke-width:.5"/><circle cx="500" cy="126.684" r="11" fill="#ADD1B2" style="stroke:#181818;stroke-width:1"/><path d="M502.969 132.325q-.578.297-1.219.438-.64.156-1.344.156-2.5 0-3.828-1.64-1.312-1.657-1.312-4.782t1.312-4.781q1.328-1.656 3.828-1.656.703 0 1.344.156.656.156 1.219.453v2.719q-.625-.579-1.219-.844-.594-.281-1.219-.281-1.344 0-2.031 1.078-.687 1.062-.687 3.156t.687 3.172q.688 1.062 2.031 1.062.625 0 1.219-.265.594-.281 1.219-.86z"/><text x="519" y="132.57" fill="#D9B8FF" font-family="Helvetica" font-size="17" textLength="301">azure_cosmos_db_cassandra_cluster</text><rect width="451" height="39.789" x="7" y="206.58" fill="#3D176E" rx="2.5" ry="2.5" style="stroke:#000d19;stroke-width:.5"/><circle cx="22" cy="226.475" r="11" fill="#ADD1B2" style="stroke:#181818;stroke-width:1"/><path d="M24.969 232.115q-.578.297-1.219.438-.64.156-1.344.156-2.5 0-3.828-1.64-1.312-1.657-1.312-4.782t1.312-4.781q1.328-1.656 3.828-1.656.703 0 1.344.156.656.156 1.219.453v2.719q-.625-.578-1.219-.844-.594-.281-1.219-.281-1.343 0-2.031 1.078-.687 1.062-.687 3.156t.687 3.172q.688 1.062 2.031 1.062.625 0 1.219-.265.594-.281 1.219-.86z"/><text x="41" y="232.36" fill="#D9B8FF" font-family="Helvetica" font-size="17" textLength="409">azure_cosmos_db_cassandra_cluster_data_center</text><rect width="461" height="39.789" x="493" y="206.58" fill="#3D176E" rx="2.5" ry="2.5" style="stroke:#000d19;stroke-width:.5"/><circle cx="508" cy="226.475" r="11" fill="#ADD1B2" style="stroke:#181818;stroke-width:1"/><path d="M510.969 232.115q-.578.297-1.219.438-.64.156-1.344.156-2.5 0-3.828-1.64-1.312-1.657-1.312-4.782t1.312-4.781q1.328-1.656 3.828-1.656.703 0 1.344.156.656.156 1.219.453v2.719q-.625-.578-1.219-.844-.594-.281-1.219-.281-1.344 0-2.031 1.078-.687 1.062-.687 3.156t.687 3.172q.688 1.062 2.031 1.062.625 0 1.219-.265.594-.281 1.219-.86z"/><text x="527" y="232.36" fill="#D9B8FF" font-family="Helvetica" font-size="17" textLength="419">azure_cosmos_db_cassandra_cluster_public_status</text><rect width="233" height="39.789" x="361" y="7" fill="#3D176E" rx="2.5" ry="2.5" style="stroke:#000d19;stroke-width:.5"/><circle cx="376" cy="26.895" r="11" fill="#ADD1B2" style="stroke:#181818;stroke-width:1"/><path d="M378.969 32.535q-.578.297-1.219.438-.64.156-1.344.156-2.5 0-3.828-1.64-1.312-1.657-1.312-4.782t1.312-4.781q1.328-1.656 3.828-1.656.703 0 1.344.156.656.156 1.219.453v2.719q-.625-.578-1.219-.844-.594-.281-1.219-.281-1.344 0-2.031 1.078-.687 1.062-.687 3.156t.687 3.172q.688 1.062 2.031 1.062.625 0 1.219-.265.594-.281 1.219-.86z"/><text x="395" y="32.78" fill="#D9B8FF" font-family="Helvetica" font-size="17" textLength="191">azure_network_subnet</text><rect width="324" height="39.789" x="989.5" y="206.58" fill="#3D176E" rx="2.5" ry="2.5" style="stroke:#000d19;stroke-width:.5"/><circle cx="1004.5" cy="226.475" r="11" fill="#ADD1B2" style="stroke:#181818;stroke-width:1"/><path d="M1007.469 232.115q-.578.297-1.219.438-.64.156-1.344.156-2.5 0-3.828-1.64-1.312-1.657-1.312-4.782t1.312-4.781q1.328-1.656 3.828-1.656.703 0 1.344.156.656.156 1.219.453v2.719q-.625-.578-1.219-.844-.594-.281-1.219-.281-1.343 0-2.031 1.078-.687 1.062-.687 3.156t.687 3.172q.688 1.062 2.031 1.062.625 0 1.219-.265.594-.281 1.219-.86z"/><text x="1023.5" y="232.36" fill="#D9B8FF" font-family="Helvetica" font-size="17" textLength="282">microsoft_graph_service_principal</text><path fill="none" d="M572.48 147.06c-74.24 17.13-176.093 40.622-250.273 57.732" style="stroke:#1a83af;stroke-width:2"/><path fill="#1A83AF" d="m316.36 206.14 9.669 1.875-4.797-2.999 2.999-4.796z" style="stroke:#1a83af;stroke-width:2"/><path fill="none" d="M669.74 147.01c11.74 17.14 25.42 37.1 37.16 54.24" style="stroke:#1a83af;stroke-width:2"/><path fill="#1A83AF" d="m710.29 206.2-1.786-9.686-1.04 5.56-5.56-1.039z" style="stroke:#1a83af;stroke-width:2"/><path fill="none" d="M754.59 147.06c86.67 17.13 206.514 40.807 293.124 57.917" style="stroke:#1a83af;stroke-width:2"/><path fill="#1A83AF" d="m1053.6 206.14-8.054-5.668 3.149 4.699-4.7 3.149z" style="stroke:#1a83af;stroke-width:2"/><path fill="none" d="M512.86 47.22c31.39 17.14 71.725 39.172 103.085 56.312" style="stroke:#1a83af;stroke-width:2"/><path fill="#1A83AF" d="m621.21 106.41-5.979-7.826 1.592 5.428-5.429 1.592z" style="stroke:#1a83af;stroke-width:2"/><path fill="none" d="M453.56 47.2C406.72 84.97 308.12 164.494 261.2 202.324" style="stroke:#1a83af;stroke-width:2"/><path fill="#1A83AF" d="m256.53 206.09 9.517-2.535-5.625-.603.604-5.625z" style="stroke:#1a83af;stroke-width:2"/></svg>
